X:168060
T:Mrs Lily Christie
C:PM Donald Shaw Ramsay
B: Scots Guard I
H:
O:Kevin Fraser
Z:Kevin Fraser
Q:3/8=90
K:HP
M:6/8
L:1/8
R:March
U: R = ///
U: r = //
U: V = !accent!
V:M gstem=up stem=down name="Melody"
V:H gstem=up stem=down name="Harmony"
V:C gstem=up stem=down name="C-Harmony"
V:S gstem=up stem=down dyn=up stafflines=1 clef=perc middle=G name="Snare" sname="Snare"" sname="Snare"
V:B gstem=up stem=down clef=none dyn=up name="Bass"
V:T gstem=up stem=down clef=none dyn=up name="Tenor"
V:BB gstem=up stem=down name="Brass Bass" sname="ABCD-C" transpose=-1  octave=-1 clef=bass
V:BC gstem=up stem=down name="Brass Chord" sname="ABCD-D" transpose=-1
V:BD gstem=up stem=down name="Brass Chord 2" sname="ABCD-B" transpose=-1
V:P gstem=up stem=down name="Piano" octave=-1
I:MIDI=program 110
%%MIDI gracedivider 4
% %score {M H}
%%MIDI program 109 #bagpipes
%%MIDI vol 100
%%landscape off
[V:M]|: {g}A     | {Gdc}d2f {gAGAG}A2d  | {g}A>da {fg}f>ed | {g}G>{d}G{e}G {gf}g2f | {g}e>f{g}d {gcd}c>B{G}A |
[V:M]["2 of 1,2,4" {Gdc}d2f {gAGAG}A2d  | {g}A>da {fg}f>ed | {g}G>{d}G{e}G {gf}g>e{A}e | {g}A>e{g}c {Gdc}d2  :|
[V:M]|:   {gf}g  | a>ga {fg}f2 A        | {g}d>fa {fg}f>ed | {gf}g2G {d}B<gf       | {g}e>f{g}d {gcd}c>B{G}A |
[V:M]          [1  a>ga {fg}f2 A        | {g}d>fa {fg}f>ed | {g}G>{d}G{e}G {gf}g>e{G}e | {g}A>e{g}c {Gdc}d2  :|
[V:M]|: {g}A     | {Gdc}d2{c}d {g}A>df  | {g}A>da {fg}f>ed | {gBd}B2{G}B {g}G>g{a}f | {g}e>f{g}d {gcd}c>B{G}A |
[V:M]            | {Gdc}d2{c}d {g}A>df  | {g}A>da {fg}f>ed |{g}G>{d}G{e}G {gf}g>e{A}e | {g}A>e{g}c {Gdc}d2  :|
[V:M]|: {gf}g    | a2{GdG}a {g}a3       | {g}A>a{g}a {fg}f>ed | g>{a}eg {a}f>df      | {g}e>f{g}d {gcd}c>B{G}A |
[V:M]         [1   a2{GdG}a {g}a3       | {g}A>a{g}a {fg}f>ed |{g}G>{d}G{e}G {gf}g>e{A}e | {g}A>e{g}c {Gdc}d2  :|


